svg/24/text-set.svg

<svg width="24" height="24" viewBox="0 0 24 24" fill="currentColor" xmlns="http://www.w3.org/2000/svg"><path d="M3 3.75C3 3.33579 3.33579 3 3.75 3H20.25C20.6642 3 21 3.33579 21 3.75C21 4.16421 20.6642 4.5 20.25 4.5H3.75C3.33579 4.5 3 4.16421 3 3.75Z"/><path d="M3 9.25C3 8.83579 3.33579 8.5 3.75 8.5H12.25C12.6642 8.5 13 8.83579 13 9.25C13 9.66421 12.6642 10 12.25 10H3.75C3.33579 10 3 9.66421 3 9.25Z"/><path d="M3 14.75C3 14.3358 3.33579 14 3.75 14H12.0218C11.7253 14.4632 11.4858 14.9665 11.3135 15.5H3.75C3.33579 15.5 3 15.1642 3 14.75Z"/><path d="M3.75 19.5H11.3135C11.4858 20.0335 11.7253 20.5368 12.0218 21H3.75C3.33579 21 3 20.6642 3 20.25C3 19.8358 3.33579 19.5 3.75 19.5Z"/><path fill-rule="evenodd" clip-rule="evenodd" d="M23 17.5C23 20.5376 20.5376 23 17.5 23C14.4624 23 12 20.5376 12 17.5C12 14.4624 14.4624 12 17.5 12C20.5376 12 23 14.4624 23 17.5ZM20 15.5C20 15.2239 19.7762 15 19.5 15H16.6716C16.3955 15 16.1716 15.2239 16.1716 15.5C16.1716 15.7761 16.3955 16 16.6716 16H18.2929L15.1463 19.1466C14.9511 19.3419 14.9511 19.6584 15.1463 19.8537C15.3416 20.049 15.6582 20.049 15.8534 19.8537L19 16.7071V18.3284C19 18.6046 19.2239 18.8284 19.5 18.8284C19.7762 18.8284 20 18.6046 20 18.3284V15.5Z"/></svg>

<svg xmlns="http://www.w3.org/2000/svg" width="24" height="24" fill="currentColor" viewBox="0 0 24 24">
  <path d="M3 3.75A.75.75 0 0 1 3.75 3h16.5a.75.75 0 0 1 0 1.5H3.75A.75.75 0 0 1 3 3.75Zm0 5.5a.75.75 0 0 1 .75-.75h8.5a.75.75 0 0 1 0 1.5h-8.5A.75.75 0 0 1 3 9.25Zm0 5.5a.75.75 0 0 1 .75-.75h8.272a6.471 6.471 0 0 0-.709 1.5H3.75a.75.75 0 0 1-.75-.75Zm.75 4.75h7.563c.173.534.412 1.037.709 1.5H3.75a.75.75 0 0 1 0-1.5Z"/>
  <path fill-rule="evenodd" d="M23 17.5a5.5 5.5 0 1 1-11 0 5.5 5.5 0 0 1 11 0Zm-3-2a.5.5 0 0 0-.5-.5h-2.828a.5.5 0 0 0 0 1h1.62l-3.146 3.147a.5.5 0 0 0 .707.707L19 16.707v1.621a.5.5 0 1 0 1 0V15.5Z" clip-rule="evenodd"/>
</svg>
